icons/mimetypes/64/audio-x-wav.svg

<?xml version="1.0" encoding="UTF-8" standalone="no"?>
<svg
   xmlns:dc="http://purl.org/dc/elements/1.1/"
   xmlns:cc="http://creativecommons.org/ns#"
   xmlns:rdf="http://www.w3.org/1999/02/22-rdf-syntax-ns#"
   xmlns:svg="http://www.w3.org/2000/svg"
   xmlns="http://www.w3.org/2000/svg"
   xmlns:xlink="http://www.w3.org/1999/xlink"
   xmlns:sodipodi="http://sodipodi.sourceforge.net/DTD/sodipodi-0.dtd"
   xmlns:inkscape="http://www.inkscape.org/namespaces/inkscape"
   width="64"
   version="1.1"
   viewBox="0 0 64 64"
   height="64"
   id="svg2"
   inkscape:version="0.91 r13725"
   sodipodi:docname="audio-x-wav.svg">
  <sodipodi:namedview
     pagecolor="#ffffff"
     bordercolor="#666666"
     borderopacity="1"
     objecttolerance="10"
     gridtolerance="10"
     guidetolerance="10"
     inkscape:pageopacity="0"
     inkscape:pageshadow="2"
     inkscape:window-width="1920"
     inkscape:window-height="1021"
     id="namedview24"
     showgrid="false"
     inkscape:zoom="1"
     inkscape:cx="69.559322"
     inkscape:cy="29.830508"
     inkscape:window-x="0"
     inkscape:window-y="30"
     inkscape:window-maximized="1"
     inkscape:current-layer="svg2"
     inkscape:snap-bbox="true"
     inkscape:bbox-nodes="true">
    <inkscape:grid
       type="xygrid"
       id="grid4235" />
  </sodipodi:namedview>
  <defs
     id="defs4">
    <linearGradient
       id="linearGradient4351">
      <stop
         style="stop-color:#ffd6af"
         id="stop4353" />
      <stop
         offset="1"
         style="stop-color:#fffcf9"
         id="stop4355" />
    </linearGradient>
    <linearGradient
       id="linearGradient4300">
      <stop
         style="stop-color:#f62459"
         id="stop4302" />
      <stop
         offset="1"
         style="stop-color:#f73768"
         id="stop4304" />
    </linearGradient>
    <linearGradient
       id="linearGradient6251"
       inkscape:collect="always">
      <stop
         id="stop6253"
         offset="0"
         style="stop-color:#ffffff;stop-opacity:0" />
      <stop
         id="stop6255"
         offset="1"
         style="stop-color:#ffffff;stop-opacity:0.2" />
    </linearGradient>
    <linearGradient
       inkscape:collect="always"
       xlink:href="#linearGradient6251"
       id="linearGradient7157"
       gradientUnits="userSpaceOnUse"
       gradientTransform="translate(-6,-332.3622)"
       x1="58"
       y1="392.36221"
       x2="58"
       y2="336.36221" />
  </defs>
  <metadata
     id="metadata84">
    <rdf:RDF>
      <cc:Work
         rdf:about="">
        <dc:format>image/svg+xml</dc:format>
        <dc:type
           rdf:resource="http://purl.org/dc/dcmitype/StillImage" />
      </cc:Work>
    </rdf:RDF>
  </metadata>
  <rect
     width="0"
     x="146.59265"
     y="21.642801"
     height="22.785679"
     style="fill:#ffffff"
     id="rect4035" />
  <rect
     width="0"
     x="146.59265"
     y="21.642801"
     height="22.785679"
     style="fill:#ffffff"
     id="rect4035-7" />
  <rect
     width="0"
     x="145.92819"
     y="19.571373"
     height="22.785679"
     style="fill:#ffffff"
     id="rect4035-4" />
  <rect
     width="0"
     x="142.74678"
     y="19.335581"
     height="23.02165"
     style="fill:#fbd2bf"
     id="rect4035-3" />
  <rect
     width="0"
     x="145.92819"
     y="19.571373"
     height="22.785679"
     style="fill:#fbd2bf"
     id="rect4035-1" />
  <rect
     width="0"
     x="187.35666"
     y="19.571373"
     height="22.785679"
     style="fill:#fbfbfb"
     id="rect4035-2" />
  <rect
     width="0"
     x="145.92819"
     y="19.571373"
     height="22.785679"
     style="fill:#fbfbfb"
     id="rect4035-8" />
  <rect
     width="0"
     x="145.92819"
     y="19.571373"
     height="22.785679"
     style="fill:#fbfbfb"
     id="rect4035-9" />
  <rect
     width="0"
     x="173.39047"
     y="37.705475"
     height="22.785679"
     style="fill:#ffffff"
     id="rect4035-75" />
  <rect
     width="0"
     x="172.72601"
     y="35.634048"
     height="22.785679"
     style="fill:#ffffff"
     id="rect4035-4-3" />
  <rect
     width="0"
     x="169.54462"
     y="35.398254"
     height="23.02165"
     style="fill:#fbd2bf"
     id="rect4035-3-56" />
  <rect
     width="0"
     x="172.72601"
     y="35.634048"
     height="22.785679"
     style="fill:#fbd2bf"
     id="rect4035-1-2" />
  <rect
     width="0"
     x="172.72601"
     y="35.634048"
     height="22.785679"
     style="fill:#fbfbfb"
     id="rect4035-5-9" />
  <rect
     width="0"
     x="173.39047"
     y="37.705475"
     height="22.785679"
     style="fill:#ffffff"
     id="rect4035-7-1" />
  <rect
     width="0"
     x="172.72601"
     y="35.634048"
     height="22.785679"
     style="fill:#ffffff"
     id="rect4035-4-53" />
  <rect
     width="0"
     x="169.54462"
     y="35.398254"
     height="23.02165"
     style="fill:#fbd2bf"
     id="rect4035-3-5" />
  <rect
     width="0"
     x="172.72601"
     y="35.634048"
     height="22.785679"
     style="fill:#fbd2bf"
     id="rect4035-1-6" />
  <rect
     width="0"
     x="172.72601"
     y="35.634048"
     height="22.785679"
     style="fill:#fbfbfb"
     id="rect4035-5-2" />
  <rect
     width="0"
     x="173.39047"
     y="37.705475"
     height="22.785679"
     style="fill:#ffffff"
     id="rect4035-53" />
  <rect
     width="0"
     x="172.72601"
     y="35.634048"
     height="22.785679"
     style="fill:#ffffff"
     id="rect4035-4-5" />
  <rect
     width="0"
     x="173.39047"
     y="37.705475"
     height="22.785679"
     style="fill:#ffffff"
     id="rect4035-535" />
  <rect
     width="0"
     x="172.72601"
     y="35.634048"
     height="22.785679"
     style="fill:#ffffff"
     id="rect4035-4-6" />
  <rect
     width="0"
     x="169.54462"
     y="35.398254"
     height="23.02165"
     style="fill:#fbd2bf"
     id="rect4035-3-2" />
  <rect
     width="0"
     x="172.72601"
     y="35.634048"
     height="22.785679"
     style="fill:#fbd2bf"
     id="rect4035-1-9" />
  <rect
     width="0"
     x="172.72601"
     y="35.634048"
     height="22.785679"
     style="fill:#fbfbfb"
     id="rect4035-5" />
  <rect
     width="0"
     x="172.72601"
     y="35.634048"
     height="22.785679"
     style="fill:#fffcf9"
     id="rect4035-8-0" />
  <rect
     width="0"
     x="172.72601"
     y="35.634048"
     height="22.785679"
     style="fill:#e8d9eb"
     id="rect4035-44" />
  <rect
     width="0"
     x="172.72601"
     y="35.634048"
     height="22.785679"
     style="fill:#e8d9eb"
     id="rect4035-7-6" />
  <rect
     width="0"
     x="173.39047"
     y="37.705475"
     height="22.785679"
     style="fill:#ffffff"
     id="rect4035-26" />
  <rect
     width="0"
     x="172.72601"
     y="35.634048"
     height="22.785679"
     style="fill:#ffffff"
     id="rect4035-4-1" />
  <rect
     width="0"
     x="169.54462"
     y="35.398254"
     height="23.02165"
     style="fill:#fbd2bf"
     id="rect4035-3-8" />
  <rect
     width="0"
     x="172.72601"
     y="35.634048"
     height="22.785679"
     style="fill:#fbd2bf"
     id="rect4035-1-7" />
  <g
     id="g4292">
    <circle
       r="24"
       cy="36"
       cx="37"
       id="path4283"
       style="color:#000000;clip-rule:nonzero;display:inline;overflow:visible;visibility:visible;opacity:1;isolation:auto;mix-blend-mode:normal;color-interpolation:sRGB;color-interpolation-filters:linearRGB;solid-color:#000000;solid-opacity:1;fill:#90cdf3;fill-opacity:1;fill-rule:nonzero;stroke:none;stroke-width:1;stroke-linecap:butt;stroke-linejoin:miter;stroke-miterlimit:4;stroke-dasharray:none;stroke-dashoffset:0;stroke-opacity:1;marker:none;color-rendering:auto;image-rendering:auto;shape-rendering:auto;text-rendering:auto;enable-background:accumulate" />
    <path
       inkscape:connector-curvature="0"
       id="rect4838"
       d="m 5,11 0,50 50,0 0,-20 -4.095703,0 C 48.187414,41 46,38.812586 46,36.095703 l 0,-0.191406 C 46,33.187414 48.187414,31 50.904297,31 L 55,31 55,11 5,11 Z"
       style="color:#000000;clip-rule:nonzero;display:inline;overflow:visible;visibility:visible;opacity:1;isolation:auto;mix-blend-mode:normal;color-interpolation:sRGB;color-interpolation-filters:linearRGB;solid-color:#000000;solid-opacity:1;fill:#209ae7;fill-opacity:1;fill-rule:nonzero;stroke:none;stroke-width:1;stroke-linecap:butt;stroke-linejoin:miter;stroke-miterlimit:4;stroke-dasharray:none;stroke-dashoffset:0;stroke-opacity:1;marker:none;color-rendering:auto;image-rendering:auto;shape-rendering:auto;text-rendering:auto;enable-background:accumulate;filter-blend-mode:normal;filter-gaussianBlur-deviation:0" />
    <rect
       width="50"
       x="5"
       y="59.999992"
       height="1.0000085"
       style="color:#000000;clip-rule:nonzero;display:inline;overflow:visible;visibility:visible;opacity:0.25;isolation:auto;mix-blend-mode:normal;color-interpolation:sRGB;color-interpolation-filters:linearRGB;solid-color:#000000;solid-opacity:1;fill:#000000;fill-opacity:1;fill-rule:nonzero;stroke-width:1;stroke-linecap:butt;stroke-linejoin:miter;stroke-miterlimit:4;stroke-dasharray:none;stroke-dashoffset:0;stroke-opacity:1;color-rendering:auto;image-rendering:auto;shape-rendering:auto;text-rendering:auto;enable-background:accumulate;filter-blend-mode:normal;filter-gaussianBlur-deviation:0"
       id="rect4840" />
    <rect
       width="50"
       x="5"
       y="10.999992"
       height="1.0000085"
       style="color:#000000;clip-rule:nonzero;display:inline;overflow:visible;visibility:visible;opacity:0.5;isolation:auto;mix-blend-mode:normal;color-interpolation:sRGB;color-interpolation-filters:linearRGB;solid-color:#000000;solid-opacity:1;fill:#ffffff;fill-opacity:1;fill-rule:nonzero;stroke-width:1;stroke-linecap:butt;stroke-linejoin:miter;stroke-miterlimit:4;stroke-dasharray:none;stroke-dashoffset:0;stroke-opacity:1;color-rendering:auto;image-rendering:auto;shape-rendering:auto;text-rendering:auto;enable-background:accumulate;filter-blend-mode:normal;filter-gaussianBlur-deviation:0"
       id="rect4842" />
    <path
       inkscape:connector-curvature="0"
       style="color:#000000;clip-rule:nonzero;display:inline;overflow:visible;visibility:visible;opacity:0.75;isolation:auto;mix-blend-mode:normal;color-interpolation:sRGB;color-interpolation-filters:linearRGB;solid-color:#000000;solid-opacity:1;fill:#ffffff;fill-opacity:1;fill-rule:nonzero;stroke-width:1;stroke-linecap:butt;stroke-linejoin:miter;stroke-miterlimit:4;stroke-dasharray:none;stroke-dashoffset:0;stroke-opacity:1;color-rendering:auto;image-rendering:auto;shape-rendering:auto;text-rendering:auto;enable-background:accumulate"
       id="path4285"
       d="m 21,25 0,16.052734 C 20.36543,40.404437 19.48304,40 18.5,40 16.561,40 15,41.561 15,43.5 c 0,1.939 1.561,3.5 3.5,3.5 1.90486,0 3.436589,-1.50897 3.490229,-3.400391 l 0.01,0 -2.3e-4,-0.09961 0,-13.5 14,0 0,8.052734 C 35.36543,37.404437 34.48304,37 33.5,37 31.561,37 30,38.561 30,40.5 c 0,1.939 1.561,3.5 3.5,3.5 1.938999,0 3.5,-1.561 3.5,-3.5 l 0,-15.5 -1,0 -14,0 -1,0 z m 1,2 14,0 0,2 -14,0 0,-2 z" />
    <path
       inkscape:connector-curvature="0"
       id="rect4848"
       d="m 5,11 0,50 50,0 0,-9.158203 A 24,24 0 0 0 61,36 24,24 0 0 0 55,20.169922 L 55,11 5,11 Z"
       style="color:#000000;clip-rule:nonzero;display:inline;overflow:visible;visibility:visible;opacity:1;isolation:auto;mix-blend-mode:normal;color-interpolation:sRGB;color-interpolation-filters:linearRGB;solid-color:#000000;solid-opacity:1;fill:url(#linearGradient7157);fill-opacity:1;fill-rule:nonzero;stroke:none;stroke-width:1;stroke-linecap:butt;stroke-linejoin:miter;stroke-miterlimit:4;stroke-dasharray:none;stroke-dashoffset:0;stroke-opacity:1;marker:none;color-rendering:auto;image-rendering:auto;shape-rendering:auto;text-rendering:auto;enable-background:accumulate" />
  </g>
</svg>

<svg width="64" xmlns="http://www.w3.org/2000/svg" viewBox="0 0 64 64" height="64">
 <defs>
  <linearGradient id="a" y1="392.36" y2="336.36" gradientUnits="userSpaceOnUse" x2="0" gradientTransform="translate(-6-332.36)">
   <stop stop-color="#ffffff" stop-opacity="0"/>
   <stop offset="1" stop-color="#ffffff" stop-opacity=".2"/>
  </linearGradient>
 </defs>
 <g color-rendering="auto" color-interpolation-filters="linearRGB" shape-rendering="auto" image-rendering="auto" text-rendering="auto" color-interpolation="sRGB" color="#000000">
  <circle fill="#90cdf3" cx="37" cy="36" r="24"/>
  <path fill="#209ae7" d="m5 11v50h50v-20h-4.096c-2.717 0-4.904-2.187-4.904-4.904v-.191c0-2.717 2.187-4.904 4.904-4.904h4.096v-20z"/>
  <rect opacity=".25" x="5" y="60" width="50" height="1"/>
  <g fill="#ffffff">
   <rect opacity=".5" x="5" y="11" width="50" height="1"/>
   <path opacity=".75" d="m21 25v16.05c-.635-.648-1.517-1.053-2.5-1.053-1.939 0-3.5 1.561-3.5 3.5 0 1.939 1.561 3.5 3.5 3.5 1.905 0 3.437-1.509 3.49-3.4h.01v-13.6h14v8.05c-.635-.648-1.517-1.053-2.5-1.053-1.939 0-3.5 1.561-3.5 3.5 0 1.939 1.561 3.5 3.5 3.5 1.939 0 3.5-1.561 3.5-3.5v-15.5h-15zm1 2h14v2h-14z"/>
  </g>
  <path fill="url(#a)" d="m5 11v50h50v-9.158a24 24 0 0 0 6 -15.841797 24 24 0 0 0 -6 -15.830078v-9.17z"/>
 </g>
</svg>
